X: 667
T: Etse Bir Kerre O Meh
C: Ahmet Avni Konuk
O: Turkey
F: http://compmusic.upf.edu/node/140
N: araban--kupe--musemmen--etse--ahmet_avni_konuk
N: makam= araban
N: form= kupe
N: usul= musemmen = 8/8
M: 8/8
L: 1/16
K: C _7/8B _7/8e ^f ^c
Q: 1/4=96
%%MIDI tuningsystem comma53
d4 d2fe edd2 c4  | ded2 cdcB BABA GFG2  | 
w:  Et se  bir  *  *  *  ker  |  re  *  *  o  *  meh  *  *  *  nâz_  | 
d4 e2f2 efg2 a2g2  | a=c'_b2 abag gfg4z2  | \
w:  i le  fasl_ *  *  ı   |  A *  *  ra *  bân    | 
g4 g2fg a_bag f_3/4ed2  | 
w:  Şa şı rır  *  *  *  Türk  | 
d4 d2de dc_BA G2z2  | d4 e2f2 edfg a_bag  | 
w:  çe sin  Â *  *  *  râb_  |  ı  gü rûh_ *  *  u   | 
f4 eded ced4z2  | |


